X:552
T: Shi dajie
N: C0212
O: China,Yunnan
S: II, 72]
N: Vorspiel; Verzierungen
N: aehnlich wie II, 66 aber keine Variante. - 10 Schwestern gehen
N: zum Teepfluecken auf den Berg. Die letzte ist etwas dumm.
N: Pinyin-Text der ersten Strophe vorhanden!
R: Hua deng diao, Preislied auf 10 Schwestern; hnlich wie Shange]
M: 2/4
L: 1/16
K: C
A8- | A4c2d2 | e8 | d6cdc | A6c2 | E2G2A4
e2e2d2e2 | e4d2e2 | A4e4 | d6cdc | A6c2 | E2G2A2z2
c2c2A2d2 | c2A2A2G2 | c2A2A2G2 | G2E2D2C2 | D6C2 | A,8
A2A2A2c2 | e4d2e2 | A4e4 | d6cdc | A6c2 | E2G2A2z2
c2c2A2d2 | c4A2G2 | c2A2A2G2 | G2E2D2C2 | D6C2 | A,8
e4e2c2 | d6cdc | A6c2 | E4A4 | A2G2E4
c2c2A2d2 | c4A2G2 | c2A2A2G2 | G2E2D2C2 | D6C2 | A,8

